X: 21012
M: 2/4
L: 1/16
K: Bb
V: 1 name="5"
[|\
gfgf b2d2 | cBcB G2c2 | FBdB cBAB | c4 "^D.C."B2 |]
E2cA DFBF | C2GE B,DFD | B2df c2dB | f4 "^D.C."z2 |]


